assets/flags-color/Se.svg

<svg xmlns="http://www.w3.org/2000/svg" viewBox="0 0 512 512"><path fill="#4173cd" d="M0 0h512v512H0z"/><path fill="#ffe15a" d="M512 232H211.862V0h-52.965v232H0v48h158.897v232h52.965V280H512z"/></svg>

<svg xmlns="http://www.w3.org/2000/svg" x="0" y="0" enable-background="new 0 0 512 512" version="1.1" viewBox="0 0 512 512" xml:space="preserve"><path fill="#4173CD" d="M0 0H512V512H0z"/><path fill="#FFE15A" d="M512 232 211.862 232 211.862 0 158.897 0 158.897 232 0 232 0 280 158.897 280 158.897 512 211.862 512 211.862 280 512 280z"/></svg>
